X:1
T:Hark! the Herald Angels Sing
T:Hark! the Herald Angels Sing
%%score ( 1 2 ) ( 3 4 )
L:1/8
M:4/4
K:F
V:1 treble nm="Piano" snm="Pno."
V:2 treble 
V:3 bass nm="Piano" snm="Pno."
V:4 bass 
V:1
 C2 [CF]2 [CF]3 [CE] | [CF]2 [FA]2 (([FA]2 [EG]2)) | [Fc]2 [Ec]2 c3 B | [FA]2 [EG]2 [FA]4 | %4
w: 1~Hark! the he- rald|an- gels sing, _|"Glo- ry to the|new- born King:|
w: 2~Christ, by high- est|heaven a- dored, _|Christ, the e- ver-|las- ting Lord,|
w: 3~Hail the heaven- born|Prince of Peace! _|Hail the Sun of|Right- eous- ness!|
 C2 [CF]2 [CF]3 [CE] | [A,F]2 [FA]2 (A2 G2) | [Ec]2 [DG]2 [EG]3 [CE] | [CE]2 [=B,D]2 C4 | %8
w: peace on earth, and|mer- cy mild, _|God and sin- ners|re- con- ciled!"|
w: late in time be-|hold him come, _|off- spring of the|Vir- gin's womb:|
w: Light and life to|all he brings, _|risen with heal- ing|in his wings.|
 [Cc]2 [Cc]2 [Cc]2 F2 | [GB]2 [FA]2 (([FA]2 [EG]2)) | [Cc]2 [Cc]2 [Cc]2 [CF]2 | %11
w: Joy- ful, all ye|na- tions, rise, _|join the tri- umph|
w: veiled in flesh the|Go- dhead see; _|hail th'in- car- nate|
w: Mild he lays his|glo- ry by, _|born that we no|
 [GB]2 [FA]2 (([FA]2 [EG]2)) | [Bd]2 [Bd]2 [Bd]2 [Ac]2 | [GB]2 [^FA]2 [GB]4 | [EG]2 AB [Fc]3 [CF] | %15
w: of the skies; _|with th'an- ge- lic|hosts pro- claim,|"Christ is _ born in|
w: De- i- ty, _|pleased with us in|flesh to dwell,|Je- sus, _ our Im-|
w: more may die, _|born to raise us|from the earth,|born to _ give us|
 [CF]2 [EG]2 [FA]4 | d3 d [Bd]2 [Ac]2 | [GB]2 [^FA]2 [GB]4 | [CG]2 AB [Fc]3 F | %19
w: Beth- le- hem!"|Hark! the her- ald|an- gels sing,|"Glo- ry _ to the|
w: ma- nu- el.||||
w: se- cond birth.||||
 [CF]2 [CG]2 [CF]4 |] %20
w: new- born King."|
w: |
w: |
V:2
 C2 x6 | x8 | x4 D2 G2 | x8 | C2 x6 | x4 F4 | x8 | x4 C4 | x6 F2 | x8 | x8 | x8 | x8 | x8 | %14
 x2 E2 x4 | x8 | B2 B2 x4 | x8 | x2 E2 x3 F | x8 |] %20
V:3
 [F,A,]2 [F,A,]2 A,3 G, | [A,,F,]2 [F,,C]2 [C,C]4 | [A,,C]2 [A,,C]2 [B,,D]2 [B,,D]2 | %3
 [C,C]2 [C,C]2 [F,C]4 | [F,A,]2 [F,A,]2 A,3 G, | [D,F,]2 [C,C]2 D4 | [A,,C]2 [=B,,D]2 C3 G, | %7
 [F,,A,]2 [G,,F,]2 [C,E,]4 | C2 C2 C2 [A,C]2 | [E,C]2 [F,C]2 [C,C]4 | C2 C2 C2 [A,C]2 | %11
 [E,C]2 [F,C]2 [C,C]4 | [B,,D]2 [B,,D]2 [B,,D]2 [B,,D]2 | [B,,D]2 [D,C]2 [G,B,]4 | C2 C2 C3 A, | %15
 [C,A,]2 [C,C]2 [F,C]4 | [B,D]2 [B,D]2 [B,D]2 [A,C]2 | [G,B,]2 [^F,A,]2 B,4 | [E,C]2 C2 C3 A, | %19
 [C,A,]2 [C,B,]2 [F,A,]4 |] %20
V:4
 x4 F,2 C,2 | x8 | x8 | x8 | x4 F,2 C,2 | x4 (=B,,3 G,,) | x4 C,2 E,,2 | x8 | C2 C2 C2 x2 | x8 | %10
 C2 C2 C2 x2 | x8 | x8 | x8 | B,2 B,2 A,2 F,2 | x8 | B,,8- | B,,2 D,2 (G,2 =F,2) | x2 B,2 A,2 F,2 | %19
 x8 |] %20

